X: 18171
T: Humours Of Ennistymon, The
R: jig
M: 6/8
K: Gmajor
|:~B3 GAB|~c3 Adc|B2 D GBd|cAG FGA|
~B3 GAB|~c3 ABc|ded cAF|1 AGF G2 A:|2 AGF GBd||
|:~f3 fed|cAG FGA|dgg gfg|afd d3|
(3fga f ged|cAG FGA|~B3 cAF|1 AGF GBd:|2 AGF G3||

